src/epub/images/titlepage.svg

<?xml version="1.0" encoding="UTF-8"?>
<svg xmlns="http://www.w3.org/2000/svg" xmlns:se="https://standardebooks.org/vocab/1.0" version="1.1" viewBox="0 0 1400 340" se:generated-from="c81586f3ed597b4cd14373420b8b8f9536db7492">
	<path d="m 540.81067,130 19.46199,0 21.9883,-77.192984 -19.46199,0 -13.19298,52.959064 -0.46783,0 -14.03509,-52.959064 -13.28655,0 -14.03509,52.959064 -0.46784,0 -13.19298,-52.959064 -19.55556,0 L 496.55336,130 516.10892,130 528.45979,86.678362 540.81067,130 Z"/>
	<path d="m 622.09576,52.807016 -16.2807,0 L 574.65716,130 l 18.90058,0 5.70761,-15.4386 29.38011,0 5.70761,15.4386 18.90058,0 -31.15789,-77.192984 z m 0.5614,46.31579 -17.40351,0 8.60819,-22.45614 0.18713,0 8.60819,22.45614 z"/>
	<path d="m 678.76388,52.807016 -17.59064,0 0,77.192984 44.16374,0 0,-15.4386 -26.5731,0 0,-61.754384 z"/>
	<path d="m 718.98757,52.807016 0,77.192984 22.36257,0 c 21.23977,0 38.92398,-16.09357 38.92398,-38.643276 0,-22.45614 -17.77778,-38.549708 -38.92398,-38.549708 l -22.36257,0 z m 17.59064,61.473684 0,-45.754385 2.71345,0 c 13.09942,0 21.98831,10.011696 21.98831,22.923977 -0.0936,12.912278 -8.98246,22.830408 -21.98831,22.830408 l -2.71345,0 z"/>
	<path d="m 837.23026,52.807016 -44.16374,0 0,77.192984 44.16374,0 0,-15.4386 -26.5731,0 0,-15.532161 25.45029,0 0,-15.438597 -25.45029,0 0,-15.345029 26.5731,0 0,-15.438597 z"/>
	<path d="m 869.9335,82.093566 0.18713,0 L 900.81069,130 l 17.59064,0 0,-77.192984 -17.59064,0 0,47.906434 -0.18713,0 -30.69006,-47.906434 -17.59065,0 0,77.192984 17.59065,0 0,-47.906434 z"/>
	<path d="m 238.74123,266.77193 18.66667,0 0,23.22807 13.19298,0 0,-57.89474 -13.19298,0 0,23.08772 -18.66667,0 0,-23.08772 -13.19298,0 0,57.89474 13.19298,0 0,-23.22807 z"/>
	<path d="m 317.125,232.10526 -33.12281,0 0,57.89474 33.12281,0 0,-11.57895 -19.92982,0 0,-11.64912 19.08772,0 0,-11.57895 -19.08772,0 0,-11.50877 19.92982,0 0,-11.57895 z"/>
	<path d="m 342.90241,254.07018 0.14035,0 23.01755,35.92982 13.19298,0 0,-57.89474 -13.19298,0 0,35.92983 -0.14036,0 -23.01754,-35.92983 -13.19298,0 0,57.89474 13.19298,0 0,-35.92982 z"/>
	<path d="m 392.6864,232.10526 0,57.89474 13.19299,0 0,-22.87719 L 423.5636,290 l 16.77193,0 -19.92983,-23.92982 c 7.08772,-2.24562 11.85965,-8.07018 11.85965,-16.77193 0,-11.36842 -8.14035,-17.19299 -18.87719,-17.19299 l -20.70176,0 z m 13.19299,25.68421 0,-15.15789 1.54385,0 c 4.98246,0 10.94737,0.35088 10.94737,7.57895 0,7.22807 -5.96491,7.57894 -10.94737,7.57894 l -1.54385,0 z"/>
	<path d="m 435.36733,232.10526 21.33334,31.92983 0,25.96491 13.19298,0 0,-25.96491 21.33333,-31.92983 -15.85965,0 -12.07017,18.52632 -12.07018,-18.52632 -15.85965,0 z"/>
	<path d="m 522.54386,232.10526 0,57.89474 16.77192,0 c 15.92983,0 29.19299,-12.07018 29.19299,-28.98246 0,-16.8421 -13.33334,-28.91228 -29.19299,-28.91228 l -16.77192,0 z m 13.19298,46.10527 0,-34.31579 2.03509,0 c 9.82456,0 16.49122,7.50877 16.49122,17.19298 -0.0702,9.68421 -6.73684,17.12281 -16.49122,17.12281 l -2.03509,0 z"/>
	<path d="m 608.7566,232.10526 -12.21053,0 L 573.17765,290 l 14.17544,0 4.2807,-11.57895 22.03509,0 4.2807,11.57895 14.17544,0 -23.36842,-57.89474 z m 0.42105,34.73685 -13.05263,0 6.45614,-16.84211 0.14035,0 6.45614,16.84211 z"/>
	<path d="m 651.38926,290 10.38597,0 24.2807,-57.89474 -14.8772,0 -14.59649,38.03509 -14.59649,-38.03509 -14.87719,0 L 651.38926,290 Z"/>
	<path d="m 706.43859,232.10526 -13.19298,0 0,57.89474 13.19298,0 0,-57.89474 z"/>
	<path d="m 719.90131,232.10526 0,57.89474 16.77193,0 c 15.92982,0 29.19298,-12.07018 29.19298,-28.98246 0,-16.8421 -13.33333,-28.91228 -29.19298,-28.91228 l -16.77193,0 z m 13.19298,46.10527 0,-34.31579 2.03509,0 c 9.82456,0 16.49123,7.50877 16.49123,17.19298 -0.0702,9.68421 -6.73685,17.12281 -16.49123,17.12281 l -2.03509,0 z"/>
	<path d="m 793.82344,243.68421 13.75439,0 0,46.31579 13.19298,0 0,-46.31579 13.75439,0 0,-11.57895 -40.70176,0 0,11.57895 z"/>
	<path d="m 857.46932,266.77193 18.66667,0 0,23.22807 13.19298,0 0,-57.89474 -13.19298,0 0,23.08772 -18.66667,0 0,-23.08772 -13.19298,0 0,57.89474 13.19298,0 0,-23.22807 z"/>
	<path d="m 900.13377,261.01754 c 0,16.91228 12.07017,30.03509 29.19298,30.03509 16.63158,0 29.1228,-13.12281 29.1228,-30.03509 0,-16.91228 -13.05263,-29.96491 -29.1228,-29.96491 -15.92983,0 -29.19298,13.05263 -29.19298,29.96491 z m 14.24561,0 c 0,-8.63157 4.77193,-17.26315 14.94737,-17.26315 10.24561,0 14.87719,8.63158 14.87719,17.26315 0,8.63158 -4.35088,17.26316 -14.87719,17.26316 -10.80702,0 -14.94737,-8.63158 -14.94737,-17.26316 z"/>
	<path d="m 969.27084,232.10526 0,57.89474 13.19299,0 0,-22.87719 L 1000.148,290 l 16.772,0 -19.92986,-23.92982 c 7.08776,-2.24562 11.85966,-8.07018 11.85966,-16.77193 0,-11.36842 -8.1404,-17.19299 -18.8772,-17.19299 l -20.70176,0 z m 13.19299,25.68421 0,-15.15789 1.54386,0 c 4.98245,0 10.94737,0.35088 10.94737,7.57895 0,7.22807 -5.96492,7.57894 -10.94737,7.57894 l -1.54386,0 z"/>
	<path d="m 1057.6952,232.10526 -33.1228,0 0,57.89474 33.1228,0 0,-11.57895 -19.9299,0 0,-11.64912 19.0878,0 0,-11.57895 -19.0878,0 0,-11.50877 19.9299,0 0,-11.57895 z"/>
	<path d="m 1100.0943,232.10526 -12.2106,0 -23.3684,57.89474 14.1755,0 4.2807,-11.57895 22.0351,0 4.2807,11.57895 14.1754,0 -23.3684,-57.89474 z m 0.421,34.73685 -13.0526,0 6.4561,-16.84211 0.1404,0 6.4561,16.84211 z"/>
	<path d="m 1175.1437,232.10526 -13.193,0 0,33.47369 c 0,9.68421 -2.9474,12.49123 -9.4035,12.49123 -6.4562,0 -9.4035,-2.80702 -9.4035,-12.49123 l 0,-33.47369 -13.193,0 0,37.33334 c 0,14.31579 7.8596,21.61403 22.5965,21.61403 14.7368,0 22.5965,-7.29824 22.5965,-21.61403 l 0,-37.33334 z"/>
</svg>

<?xml version="1.0" encoding="UTF-8"?>
<svg xmlns="http://www.w3.org/2000/svg" xmlns:se="https://standardebooks.org/vocab/1.0" version="1.1" viewBox="0 0 1400 340" se:generated-from="83e5c4c97d225a540ed1890d5c859e96b05da3ed">
	<path d="M 540.81067,130 560.27266,130 582.26096,52.807016 562.79897,52.807016 549.60599,105.76608 549.13816,105.76608 535.10307,52.807016 521.81652,52.807016 507.78143,105.76608 507.31359,105.76608 494.12061,52.807016 474.56505,52.807016 496.55336,130 516.10892,130 528.45979,86.678362 540.81067,130 Z"/>
	<path d="M 622.09576,52.807016 605.81506,52.807016 574.65716,130 593.55774,130 599.26535,114.5614 628.64546,114.5614 634.35307,130 653.25365,130 622.09576,52.807016 Z M 622.65716,99.122806 605.25365,99.122806 613.86184,76.666666 614.04897,76.666666 622.65716,99.122806 Z"/>
	<path d="M 678.76388,52.807016 661.17324,52.807016 661.17324,130 705.33698,130 705.33698,114.5614 678.76388,114.5614 678.76388,52.807016 Z"/>
	<path d="M 718.98757,52.807016 718.98757,130 741.35014,130 C 762.58991,130 780.27412,113.90643 780.27412,91.356724 780.27412,68.900584 762.49634,52.807016 741.35014,52.807016 L 718.98757,52.807016 Z M 736.57821,114.2807 736.57821,68.526315 739.29166,68.526315 C 752.39108,68.526315 761.27997,78.538011 761.27997,91.450292 761.1864,104.36257 752.29751,114.2807 739.29166,114.2807 L 736.57821,114.2807 Z"/>
	<path d="M 837.23026,52.807016 793.06652,52.807016 793.06652,130 837.23026,130 837.23026,114.5614 810.65716,114.5614 810.65716,99.029239 836.10745,99.029239 836.10745,83.590642 810.65716,83.590642 810.65716,68.245613 837.23026,68.245613 837.23026,52.807016 Z"/>
	<path d="M 869.9335,82.093566 870.12063,82.093566 900.81069,130 918.40133,130 918.40133,52.807016 900.81069,52.807016 900.81069,100.71345 900.62356,100.71345 869.9335,52.807016 852.34285,52.807016 852.34285,130 869.9335,130 869.9335,82.093566 Z"/>
	<path d="M 238.6727,266.77193 257.33937,266.77193 257.33937,290 270.53235,290 270.53235,232.10526 257.33937,232.10526 257.33937,255.19298 238.6727,255.19298 238.6727,232.10526 225.47972,232.10526 225.47972,290 238.6727,290 238.6727,266.77193 Z"/>
	<path d="M 317.05647,232.10526 283.93366,232.10526 283.93366,290 317.05647,290 317.05647,278.42105 297.12665,278.42105 297.12665,266.77193 316.21437,266.77193 316.21437,255.19298 297.12665,255.19298 297.12665,243.68421 317.05647,243.68421 317.05647,232.10526 Z"/>
	<path d="M 342.83388,254.07018 342.97423,254.07018 365.99177,290 379.18476,290 379.18476,232.10526 365.99177,232.10526 365.99177,268.03509 365.85142,268.03509 342.83388,232.10526 329.6409,232.10526 329.6409,290 342.83388,290 342.83388,254.07018 Z"/>
	<path d="M 392.61787,232.10526 392.61787,290 405.81085,290 405.81085,267.12281 423.49506,290 440.26699,290 420.33717,266.07018 C 427.42489,263.82456 432.19682,258 432.19682,249.29825 432.19682,237.92983 424.05647,232.10526 413.31963,232.10526 L 392.61787,232.10526 Z M 405.81085,257.78947 405.81085,242.63158 407.35471,242.63158 C 412.33717,242.63158 418.30208,242.98246 418.30208,250.21053 418.30208,257.4386 412.33717,257.78947 407.35471,257.78947 L 405.81085,257.78947 Z"/>
	<path d="M 435.2988,232.10526 456.63214,264.03509 456.63214,290 469.82512,290 469.82512,264.03509 491.15845,232.10526 475.2988,232.10526 463.22863,250.63158 451.15845,232.10526 435.2988,232.10526 Z"/>
	<path d="M 522.47532,232.10526 522.47532,290 539.24725,290 C 555.17708,290 568.44024,277.92982 568.44024,261.01754 568.44024,244.17544 555.1069,232.10526 539.24725,232.10526 L 522.47532,232.10526 Z M 535.66831,278.21053 535.66831,243.89474 537.70339,243.89474 C 547.52796,243.89474 554.19462,251.40351 554.19462,261.08772 554.12445,270.77193 547.45778,278.21053 537.70339,278.21053 L 535.66831,278.21053 Z"/>
	<path d="M 608.68807,232.10526 596.47754,232.10526 573.10912,290 587.28456,290 591.56526,278.42105 613.60035,278.42105 617.88105,290 632.05649,290 608.68807,232.10526 Z M 609.10912,266.84211 596.05649,266.84211 602.51263,250 602.65298,250 609.10912,266.84211 Z"/>
	<path d="M 651.45778,290 661.84375,290 686.12445,232.10526 671.24726,232.10526 656.65077,270.14035 642.05428,232.10526 627.17708,232.10526 651.45778,290 Z"/>
	<path d="M 706.50714,232.10526 693.31416,232.10526 693.31416,290 706.50714,290 706.50714,232.10526 Z"/>
	<path d="M 719.96986,232.10526 719.96986,290 736.74179,290 C 752.67162,290 765.93477,277.92982 765.93477,261.01754 765.93477,244.17544 752.60144,232.10526 736.74179,232.10526 L 719.96986,232.10526 Z M 733.16284,278.21053 733.16284,243.89474 735.19793,243.89474 C 745.02249,243.89474 751.68916,251.40351 751.68916,261.08772 751.61898,270.77193 744.95232,278.21053 735.19793,278.21053 L 733.16284,278.21053 Z"/>
	<path d="M 793.892,243.68421 807.64638,243.68421 807.64638,290 820.83937,290 820.83937,243.68421 834.59375,243.68421 834.59375,232.10526 793.892,232.10526 793.892,243.68421 Z"/>
	<path d="M 857.53781,266.77193 876.20448,266.77193 876.20448,290 889.39746,290 889.39746,232.10526 876.20448,232.10526 876.20448,255.19298 857.53781,255.19298 857.53781,232.10526 844.34483,232.10526 844.34483,290 857.53781,290 857.53781,266.77193 Z"/>
	<path d="M 900.20232,261.01754 C 900.20232,277.92982 912.27249,291.05263 929.3953,291.05263 946.02688,291.05263 958.51811,277.92982 958.51811,261.01754 958.51811,244.10526 945.46548,231.05263 929.3953,231.05263 913.46548,231.05263 900.20232,244.10526 900.20232,261.01754 Z M 914.44793,261.01754 C 914.44793,252.38597 919.21986,243.75439 929.3953,243.75439 939.64092,243.75439 944.27249,252.38597 944.27249,261.01754 944.27249,269.64912 939.92162,278.2807 929.3953,278.2807 918.58828,278.2807 914.44793,269.64912 914.44793,261.01754 Z"/>
	<path d="M 969.33934,232.10526 969.33934,290 982.53232,290 982.53232,267.12281 1000.2165,290 1016.9885,290 997.05864,266.07018 C 1004.1464,263.82456 1008.9183,258 1008.9183,249.29825 1008.9183,237.92983 1000.7779,232.10526 990.04109,232.10526 L 969.33934,232.10526 Z M 982.53232,257.78947 982.53232,242.63158 984.07618,242.63158 C 989.05864,242.63158 995.02355,242.98246 995.02355,250.21053 995.02355,257.4386 989.05864,257.78947 984.07618,257.78947 L 982.53232,257.78947 Z"/>
	<path d="M 1057.7637,232.10526 1024.6409,232.10526 1024.6409,290 1057.7637,290 1057.7637,278.42105 1037.8339,278.42105 1037.8339,266.77193 1056.9216,266.77193 1056.9216,255.19298 1037.8339,255.19298 1037.8339,243.68421 1057.7637,243.68421 1057.7637,232.10526 Z"/>
	<path d="M 1100.1628,232.10526 1087.9523,232.10526 1064.5839,290 1078.7593,290 1083.04,278.42105 1105.0751,278.42105 1109.3558,290 1123.5313,290 1100.1628,232.10526 Z M 1100.5839,266.84211 1087.5313,266.84211 1093.9874,250 1094.1277,250 1100.5839,266.84211 Z"/>
	<path d="M 1175.2122,232.10526 1162.0192,232.10526 1162.0192,265.57895 C 1162.0192,275.26316 1159.0718,278.07018 1152.6157,278.07018 1146.1595,278.07018 1143.2122,275.26316 1143.2122,265.57895 L 1143.2122,232.10526 1130.0192,232.10526 1130.0192,269.4386 C 1130.0192,283.75439 1137.8788,291.05263 1152.6157,291.05263 1167.3525,291.05263 1175.2122,283.75439 1175.2122,269.4386 L 1175.2122,232.10526 Z"/>
</svg>
